src/lib/packages/icons/src/assets/filled/store.svg

<svg width="24" height="24" viewBox="0 0 24 24" fill="none" xmlns="http://www.w3.org/2000/svg">
<path d="M20 13.08V18C20 20 19 21 17 21H14.3299C14.1639 21 14.03 20.866 14.03 20.7V17.622C14.03 16.625 13.3549 15.695 12.3719 15.529C11.1229 15.319 10.03 16.288 10.03 17.5V20.7C10.03 20.866 9.89595 21 9.72995 21H6.99997C4.99997 21 3.99997 20 3.99997 18V13.08C4.58997 13.36 5.23999 13.5 5.89999 13.5C7.03999 13.5 8.12994 13.1 8.96994 12.44C9.80994 13.1 10.89 13.5 12 13.5C13.12 13.5 14.2 13.1 15.04 12.44C15.88 13.1 16.97 13.5 18.11 13.5C18.76 13.5 19.41 13.36 20 13.08ZM7.49997 3C4.99997 3 4.61693 3.81999 4.20493 5.03799L3.16501 8.11099C2.72701 9.40499 3.16998 10.902 4.36398 11.592C4.81298 11.852 5.33802 12 5.89902 12C7.22902 12 8.53795 11.17 8.95395 10C9.35995 11.17 10.669 12 11.999 12C13.329 12 14.6379 11.17 15.0439 10C15.4599 11.17 16.77 12 18.099 12C18.661 12 19.185 11.852 19.634 11.592C20.828 10.902 21.271 9.40499 20.833 8.11099L19.7929 5.03799C19.3829 3.81999 19 3 16.5 3H7.49997Z" fill="currentColor"/>
</svg>

<svg xmlns="http://www.w3.org/2000/svg" width="24" height="24" fill="none"><path fill="currentColor" d="M20 13.08V18c0 2-1 3-3 3h-2.67a.3.3 0 0 1-.3-.3v-3.078c0-.997-.675-1.927-1.658-2.093A2.005 2.005 0 0 0 10.03 17.5v3.2a.3.3 0 0 1-.3.3H7c-2 0-3-1-3-3v-4.92c.59.28 1.24.42 1.9.42 1.14 0 2.23-.4 3.07-1.06.84.66 1.92 1.06 3.03 1.06 1.12 0 2.2-.4 3.04-1.06.84.66 1.93 1.06 3.07 1.06.65 0 1.3-.14 1.89-.42ZM7.5 3C5 3 4.617 3.82 4.205 5.038l-1.04 3.073c-.438 1.294.005 2.791 1.199 3.481.449.26.974.408 1.535.408 1.33 0 2.639-.83 3.055-2 .406 1.17 1.715 2 3.045 2 1.33 0 2.639-.83 3.045-2 .416 1.17 1.726 2 3.055 2 .562 0 1.086-.148 1.535-.408 1.194-.69 1.637-2.187 1.199-3.481l-1.04-3.073C19.383 3.82 19 3 16.5 3h-9Z"/></svg>
